X: 42020
T: Walter Douglas
R: polka
M: 2/4
K: Gmajor
|:A>A Ag|edef|g>ede|BABG|
A>A Ag|edef|g>edB|eA A2:|
e>f ga|edef|g>e de|BABG|
e>f ga|edef|g>e dB|eA A2|
e>f ga|edef|g>e de|BABG|
A>A Ag|edef|g>e dB|A2 A2|
|:A>A AB|AB e2|G>G GA|GABG|
A>A AB|ABef|g>edB|eA A2:|
a2 g2|fdef|g>e de|BABG|
a2 g2|fdef|g>e dB|A2 A f/g/|
a2 g2|fdef|g>e de|BABG|
A>A Ag|edef|g>edB|eA A f/g/|

